images/iconFB_dark.svg

<svg width="10" height="18" viewBox="0 0 10 18" fill="none" xmlns="http://www.w3.org/2000/svg">
<g clip-path="url(#clip0_3_186)">
<path d="M9.36525 0.0037452L7.03106 0C4.40867 0 2.71396 1.73871 2.71396 4.42982V6.47227H0.36703C0.164227 6.47227 0 6.63668 0 6.83949V9.79876C0 10.0016 0.164415 10.1658 0.36703 10.1658H2.71396V17.633C2.71396 17.8358 2.87819 18 3.08099 18H6.14307C6.34587 18 6.5101 17.8356 6.5101 17.633V10.1658H9.25421C9.45701 10.1658 9.62124 10.0016 9.62124 9.79876L9.62236 6.83949C9.62236 6.74211 9.5836 6.64886 9.51487 6.57994C9.44615 6.51103 9.35252 6.47227 9.25514 6.47227H6.5101V4.74086C6.5101 3.90868 6.70841 3.48622 7.79246 3.48622L9.36488 3.48566C9.56749 3.48566 9.73172 3.32124 9.73172 3.11863V0.370775C9.73172 0.168347 9.56768 0.00411972 9.36525 0.0037452Z" fill="#90A4B3"/>
</g>
<defs>
<clipPath id="clip0_3_186">
<rect width="10" height="18" fill="white"/>
</clipPath>
</defs>
</svg>

<svg xmlns="http://www.w3.org/2000/svg" width="10" height="18" fill="none"><g clip-path="url(#a)"><path fill="#90A4B3" d="M9.365.004 7.031 0C4.41 0 2.714 1.739 2.714 4.43v2.042H.367A.367.367 0 0 0 0 6.84V9.8c0 .203.164.367.367.367h2.347v7.467c0 .203.164.367.367.367h3.062a.367.367 0 0 0 .367-.367v-7.467h2.744a.367.367 0 0 0 .367-.367l.001-2.96a.368.368 0 0 0-.367-.367H6.51V4.741c0-.832.198-1.255 1.282-1.255h1.573a.367.367 0 0 0 .367-.367V.37a.367.367 0 0 0-.367-.367Z"/></g><defs><clipPath id="a"><path fill="#fff" d="M0 0h10v18H0z"/></clipPath></defs></svg>
